X:1
T:The Graduate
C:Frank Claudy <fclaudy@juno.com> irtrad-l 2000-05-29
M:C|
L:1/8
K:D
AG|FD~D2 FDAF|dedB ~A3B|d2 (3gfe dBAF|FEDE FE~E2
FD~D2 FDAF|dedB BABc|d2de dBAF|EDEF D2:|
B|A2 (3Bcd egge|fdcd eddB|ABcd e^deg|faaf ~a2 fA
d2Ad fd(3Bcd|gece geag|fdAd fdaf|gecd ed d:|
